public/assets/Sponsors/present/polygon.svg

<svg width="288" height="64" viewBox="0 0 288 64" fill="none" xmlns="http://www.w3.org/2000/svg">
<path d="M112.293 20.3867C114.054 21.467 115.544 22.9521 116.492 24.9775C117.576 27.0028 118.117 29.4332 118.117 32.1336C118.117 34.834 117.576 37.1293 116.356 39.1548C115.273 41.1801 113.647 42.6653 111.615 43.6104C109.584 44.6906 107.145 45.2307 104.572 45.2307C103.082 45.2307 101.727 44.9606 100.373 44.4205C99.0181 44.0155 97.799 43.2054 96.8508 42.2602V56.3024H88.9943V19.3066H95.7671L96.4445 22.277C99.4244 19.8468 102.675 18.6315 106.062 18.6315C108.365 18.6315 110.532 19.1716 112.293 20.3867ZM107.958 37.1293C109.313 35.9143 109.99 34.2939 109.99 32.2686C109.99 30.2433 109.313 28.6231 108.094 27.2729C106.875 25.9227 105.249 25.3826 103.488 25.3826C101.998 25.3826 100.643 25.6526 99.56 26.3277C98.4762 26.8678 97.6636 27.813 96.9862 29.0281V35.104C97.3927 36.3192 98.2053 37.2645 99.1535 37.9396C100.237 38.6147 101.456 39.0196 102.946 39.0196C104.978 39.0196 106.604 38.3445 107.958 37.1293Z" fill="white"/>
<path d="M122.723 25.1095C123.942 23.2192 125.567 21.599 127.735 20.5188C129.902 19.4385 132.34 18.7635 135.049 18.7635C137.758 18.7635 140.197 19.3036 142.364 20.5188C144.396 21.599 146.021 23.2192 147.24 25.2445C148.459 27.2698 149.001 29.4301 149.001 31.9955C149.001 34.561 148.459 36.7213 147.24 38.7466C146.021 40.7719 144.531 42.3922 142.364 43.4723C140.332 44.5525 137.758 45.2276 135.049 45.2276C132.34 45.2276 129.902 44.6875 127.735 43.6075C125.567 42.5272 123.942 41.042 122.723 39.0167C121.639 36.9914 120.962 34.6959 120.962 31.9955C120.962 29.4301 121.639 27.1348 122.723 25.1095ZM130.715 36.8562C131.798 38.2064 133.288 38.7466 135.049 38.7466C136.81 38.7466 138.3 38.0715 139.384 36.8562C140.467 35.6412 141.009 33.8859 141.009 31.9955C141.009 29.9702 140.467 28.3501 139.384 27.1348C138.165 25.7846 136.81 25.1095 134.914 25.1095C133.153 25.1095 131.798 25.7846 130.579 26.9999C129.496 28.3501 128.954 29.9702 128.954 31.9955C128.954 33.8859 129.496 35.506 130.715 36.8562Z" fill="white"/>
<path d="M161.734 0.132103V44.5541H153.878V0.132103H161.734Z" fill="white"/>
<path d="M193.972 19.9799L177.989 56.4354H170.403L176.363 43.3385L164.985 19.9799H173.925L180.427 34.562L186.929 19.9799H193.972Z" fill="white"/>
<path d="M224.043 19.9787V44.5525C224.043 46.8478 223.366 49.0083 222.012 50.8984C220.656 52.7887 218.895 54.2741 216.593 55.3542C214.291 56.4344 211.854 56.9745 209.144 56.9745C207.112 56.9745 205.351 56.7044 203.861 56.2994C202.37 55.7593 201.152 55.2192 200.204 54.6791C199.119 54.004 198.035 53.1939 196.817 52.1136L201.422 46.7128C202.506 47.7931 203.726 48.6032 204.81 49.1433C205.892 49.6834 207.383 50.0883 209.008 50.0883C211.039 50.0883 212.666 49.5482 214.02 48.6032C215.374 47.6581 216.052 46.1727 216.052 44.4175V40.9069C215.24 42.1221 214.156 43.2023 212.53 44.0124C210.905 44.8225 209.008 45.2276 206.84 45.2276C204.674 45.2276 202.506 44.6875 200.609 43.4723C198.714 42.3922 197.223 40.7719 196.005 38.7466C194.921 36.7213 194.244 34.561 194.244 32.1305C194.244 29.7003 194.785 27.4048 196.005 25.3795C197.223 23.3542 198.714 21.734 200.745 20.5188C202.641 19.3036 204.674 18.7635 206.84 18.7635C208.873 18.7635 210.634 19.0335 212.259 19.5735C213.884 20.1136 215.104 20.9239 215.917 21.869L216.729 19.9787H224.043ZM216.052 35.1011V29.0252C215.509 27.8099 214.697 26.8647 213.479 26.1896C212.259 25.5145 210.905 25.1095 209.278 25.1095C207.383 25.1095 205.758 25.7846 204.402 26.9999C203.049 28.2149 202.37 29.8352 202.37 31.8606C202.37 33.7509 203.049 35.506 204.402 36.8562C205.758 38.2064 207.383 38.8815 209.278 38.8815C212.395 38.7466 214.697 37.5313 216.052 35.1011Z" fill="white"/>
<path d="M230.545 25.1124C231.765 23.0871 233.391 21.6019 235.557 20.3867C237.725 19.3066 240.163 18.6315 242.872 18.6315C245.582 18.6315 248.019 19.1716 250.186 20.3867C252.218 21.467 253.843 23.0871 255.063 25.1124C256.147 27.1377 256.824 29.2982 256.824 31.8637C256.824 34.4289 256.281 36.5894 255.063 38.6147C253.979 40.64 252.354 42.2602 250.186 43.3404C248.155 44.4205 245.582 45.0956 242.872 45.0956C240.163 45.0956 237.725 44.5556 235.557 43.4754C233.391 42.3952 231.765 40.91 230.545 38.8847C229.326 36.8593 228.784 34.5641 228.784 31.7285C228.784 29.4332 229.326 27.1377 230.545 25.1124ZM238.402 36.8593C239.486 38.2096 240.976 38.7497 242.736 38.7497C244.497 38.7497 245.987 38.0746 247.071 36.8593C248.155 35.6441 248.696 33.889 248.696 31.9986C248.696 29.9733 248.155 28.353 247.071 27.1377C245.987 25.9227 244.497 25.2476 242.736 25.2476C240.976 25.2476 239.622 25.9227 238.402 27.1377C237.182 28.353 236.641 30.1083 236.641 31.9986C236.777 33.889 237.318 35.5091 238.402 36.8593Z" fill="white"/>
<path d="M284.593 20.7887C286.218 22.139 286.895 23.8943 287.03 26.0546V44.5525H279.038V29.0252C278.902 26.5947 277.684 25.3795 275.38 25.3795C273.621 25.3795 272.13 26.1896 271.046 27.9449C269.964 29.7003 269.421 31.8606 269.421 34.426V44.5525H261.564V19.9787H268.744L269.285 23.8943C270.233 22.2741 271.453 21.0589 273.078 20.1136C274.704 19.1686 276.6 18.7635 278.769 18.7635C281.071 18.7635 283.103 19.4385 284.593 20.7887Z" fill="white"/>
<path d="M55.4013 19.5766C54.0468 18.7665 52.2859 18.7665 50.7958 19.5766L40.2302 25.7875L33.0512 29.8382L22.4855 36.0493C21.1311 36.8593 19.3701 36.8593 17.8801 36.0493L9.48189 31.1884C8.12734 30.3783 7.17915 28.8931 7.17915 27.2727V17.6863C7.17915 16.0661 7.99187 14.5808 9.48189 13.7707L17.7447 9.04496C19.0992 8.23482 20.8601 8.23482 22.3502 9.04496L30.6129 13.7707C31.9674 14.5808 32.9158 16.0661 32.9158 17.6863V23.8972L40.0948 19.7116V13.5006C40.0948 11.8804 39.282 10.3952 37.792 9.58505L22.4855 0.673647C21.1311 -0.13648 19.3701 -0.13648 17.8801 0.673647L2.30274 9.58505C0.812734 10.3952 0 11.8804 0 13.5006V31.4585C0 33.0787 0.812734 34.5639 2.30274 35.3742L17.8801 44.2855C19.2347 45.0956 20.9957 45.0956 22.4855 44.2855L33.0512 38.2095L40.2302 34.024L50.7958 27.9478C52.1503 27.1377 53.9113 27.1377 55.4013 27.9478L63.6641 32.6737C65.0186 33.4838 65.9669 34.969 65.9669 36.5892V46.1758C65.9669 47.796 65.1541 49.2812 63.6641 50.0914L55.4013 54.9521C54.0468 55.7622 52.2859 55.7622 50.7958 54.9521L42.533 50.2264C41.1786 49.4163 40.2302 47.931 40.2302 46.3108V40.0999L33.0512 44.2855V50.4964C33.0512 52.1168 33.864 53.6019 35.354 54.412L50.9312 63.3235C52.2859 64.1336 54.0468 64.1336 55.5367 63.3235L71.1141 54.412C72.4688 53.6019 73.4169 52.1168 73.4169 50.4964V32.5386C73.4169 30.9184 72.6041 29.4332 71.1141 28.6229L55.4013 19.5766Z" fill="white"/>
</svg>

<svg width="288" height="64" fill="none" xmlns="http://www.w3.org/2000/svg"><path d="M112.293 20.387c1.761 1.08 3.251 2.565 4.199 4.59 1.084 2.026 1.625 4.456 1.625 7.157 0 2.7-.541 4.995-1.761 7.02-1.083 2.026-2.709 3.511-4.741 4.456-2.031 1.08-4.47 1.62-7.043 1.62-1.49 0-2.845-.27-4.199-.81-1.355-.404-2.574-1.215-3.522-2.16v14.042h-7.857V19.307h6.773l.678 2.97c2.98-2.43 6.23-3.646 9.617-3.646 2.303 0 4.47.54 6.231 1.756Zm-4.335 16.742c1.355-1.215 2.032-2.835 2.032-4.86 0-2.026-.677-3.646-1.896-4.996-1.219-1.35-2.845-1.89-4.606-1.89-1.49 0-2.845.27-3.928.945-1.084.54-1.896 1.485-2.574 2.7v6.076c.407 1.215 1.22 2.16 2.167 2.836a6.947 6.947 0 0 0 3.793 1.08c2.032 0 3.658-.676 5.012-1.89Zm14.765-12.019c1.219-1.89 2.844-3.511 5.012-4.591 2.167-1.08 4.605-1.755 7.314-1.755 2.709 0 5.148.54 7.315 1.755 2.032 1.08 3.657 2.7 4.876 4.726 1.219 2.025 1.761 4.185 1.761 6.75 0 2.566-.542 4.726-1.761 6.752-1.219 2.025-2.709 3.645-4.876 4.725-2.032 1.08-4.606 1.756-7.315 1.756-2.709 0-5.147-.54-7.314-1.62-2.168-1.08-3.793-2.566-5.012-4.591a14.573 14.573 0 0 1-1.761-7.022c0-2.565.677-4.86 1.761-6.886Zm7.992 11.746c1.083 1.35 2.573 1.89 4.334 1.89 1.761 0 3.251-.675 4.335-1.89 1.083-1.215 1.625-2.97 1.625-4.86 0-2.026-.542-3.646-1.625-4.861-1.219-1.35-2.574-2.026-4.47-2.026-1.761 0-3.116.676-4.335 1.89-1.083 1.351-1.625 2.971-1.625 4.997 0 1.89.542 3.51 1.761 4.86ZM161.734.132v44.422h-7.856V.132h7.856Zm32.238 19.848-15.983 36.455h-7.586l5.96-13.096-11.378-23.36h8.94l6.502 14.583 6.502-14.582h7.043Zm30.071-.001v24.574c0 2.295-.677 4.455-2.031 6.345-1.356 1.89-3.117 3.376-5.419 4.456-2.302 1.08-4.739 1.62-7.449 1.62-2.032 0-3.793-.27-5.283-.675-1.491-.54-2.709-1.08-3.657-1.62-1.085-.675-2.169-1.485-3.387-2.565l4.605-5.401a13.244 13.244 0 0 0 3.388 2.43c1.082.54 2.573.945 4.198.945 2.031 0 3.658-.54 5.012-1.485 1.354-.945 2.032-2.43 2.032-4.186v-3.51a8.86 8.86 0 0 1-3.522 3.105c-1.625.81-3.522 1.216-5.69 1.216-2.166 0-4.334-.54-6.231-1.756-1.895-1.08-3.386-2.7-4.604-4.725-1.084-2.026-1.761-4.186-1.761-6.617 0-2.43.541-4.725 1.761-6.75 1.218-2.026 2.709-3.646 4.74-4.861 1.896-1.215 3.929-1.755 6.095-1.755 2.033 0 3.794.27 5.419.81 1.625.54 2.845 1.35 3.658 2.295l.812-1.89h7.314ZM216.052 35.1v-6.076c-.543-1.215-1.355-2.16-2.573-2.835a8.434 8.434 0 0 0-4.201-1.08c-1.895 0-3.52.675-4.876 1.89-1.353 1.215-2.032 2.835-2.032 4.86 0 1.89.679 3.646 2.032 4.996 1.356 1.35 2.981 2.026 4.876 2.026 3.117-.135 5.419-1.35 6.774-3.78Zm14.493-9.988c1.22-2.025 2.846-3.51 5.012-4.725 2.168-1.08 4.606-1.756 7.315-1.756 2.71 0 5.147.54 7.314 1.756 2.032 1.08 3.657 2.7 4.877 4.725 1.084 2.026 1.761 4.186 1.761 6.752 0 2.565-.543 4.725-1.761 6.75-1.084 2.026-2.709 3.646-4.877 4.726-2.031 1.08-4.604 1.756-7.314 1.756-2.709 0-5.147-.54-7.315-1.62-2.166-1.08-3.792-2.566-5.012-4.591-1.219-2.026-1.761-4.32-1.761-7.156 0-2.296.542-4.591 1.761-6.617Zm7.857 11.747c1.084 1.35 2.574 1.89 4.334 1.89 1.761 0 3.251-.674 4.335-1.89 1.084-1.215 1.625-2.97 1.625-4.86 0-2.026-.541-3.646-1.625-4.861-1.084-1.215-2.574-1.89-4.335-1.89-1.76 0-3.114.675-4.334 1.89-1.22 1.215-1.761 2.97-1.761 4.86.136 1.891.677 3.511 1.761 4.861Zm46.191-16.07c1.625 1.35 2.302 3.105 2.437 5.266v18.498h-7.992V29.025c-.136-2.43-1.354-3.645-3.658-3.645-1.759 0-3.25.81-4.334 2.565-1.082 1.755-1.625 3.916-1.625 6.481v10.127h-7.857V19.979h7.18l.541 3.915c.948-1.62 2.168-2.835 3.793-3.78 1.626-.945 3.522-1.35 5.691-1.35 2.302 0 4.334.675 5.824 2.025ZM55.401 19.577c-1.354-.81-3.115-.81-4.605 0l-10.566 6.21-7.179 4.051-10.566 6.211c-1.354.81-3.115.81-4.605 0l-8.398-4.86c-1.355-.81-2.303-2.296-2.303-3.916v-9.587c0-1.62.813-3.105 2.303-3.915l8.263-4.726c1.354-.81 3.115-.81 4.605 0l8.263 4.726c1.354.81 2.303 2.295 2.303 3.915v6.211l7.179-4.185V13.5c0-1.62-.813-3.106-2.303-3.916L22.485.674c-1.354-.81-3.115-.81-4.605 0L2.303 9.585C.813 10.395 0 11.88 0 13.501v17.958c0 1.62.813 3.105 2.303 3.915l15.577 8.911c1.355.81 3.116.81 4.605 0l10.566-6.075 7.18-4.186 10.565-6.076c1.354-.81 3.115-.81 4.605 0l8.263 4.726c1.355.81 2.303 2.295 2.303 3.915v9.587c0 1.62-.813 3.105-2.303 3.915l-8.263 4.861c-1.354.81-3.115.81-4.605 0l-8.263-4.726c-1.354-.81-2.303-2.295-2.303-3.915V40.1l-7.179 4.185v6.211c0 1.62.813 3.106 2.303 3.916l15.577 8.912c1.355.81 3.116.81 4.606 0l15.577-8.912c1.355-.81 2.303-2.295 2.303-3.916V32.54c0-1.62-.813-3.106-2.303-3.916l-15.713-9.046Z" fill="#fff"/></svg>
